X:1
T:Title
%%score { ( 1 3 ) | 2 }
L:1/8
M:9/8
K:G
V:1 treble nm="Grand Piano"
V:3 treble 
V:2 bass 
V:1
 z3 z3[Q:1/4=117] D3 | G3- G2 [DB] [DB]2 [CA] | [B,G]3 [G,B,D]3 [G,D]3 | %3
 [G,CE]3- [G,CE]2 [G,EG] [G,DF]2 [G,CE] |[M:3/4] [G,B,D]6 |[M:3/8] [G,DG]3 | %6
[M:9/8] [DA]3- [DA]2 [DA] [DG]2 A | B3 d3 d3 | ^c3- c2 A [GB]2 [Gc] |[M:3/4] [Fd]6 |[M:3/8] D3 | %11
[M:9/8] c6 z3 | B3 G3 G3 | e6 z3 |[M:3/4] [Fd]6 |[M:3/8] F3 |[M:9/8] G6 z3 | [B,D]3 [B,G]3 B3 | %18
 .F3 z3 z3 |[M:3/4] [B,DG]6 |] %20
V:2
 z3 z3 [G,B,]3 | [G,B,D]3- [G,B,D]2 [G,,G,] [G,,G,]2 [G,,D,] | [G,,D,]3 G,,3 B,,3 | %3
 C,3- C,2 C, C,2 C, |[M:3/4] G,,6 |[M:3/8] B,,3 |[M:9/8] [D,F,]3- [D,F,]2 [C,F,] [B,,G,]2 [D,F,D] | %7
 [G,D]3 [G,B,D]3 [G,B,G]3 | [A,G]3- [A,G]2 [A,G][K:bass] [A,,A,]2 [A,,A,] |[M:3/4] [D,A,]6 | %10
[M:3/8] [D,F,]3 |[M:9/8] [D,A,]2 [D,A,] [D,A,]2 [D,D] [D,D]2 [D,D] | %12
 [G,DG]3 [G,B,D]3[K:bass] [G,B,]3 | [C,C]2 [C,C] [C,C]2[K:treble] [G,B,G] [G,DG]2[K:bass] [G,B,] | %14
[M:3/4] [D,A,]6 |[M:3/8] [D,A,C]3 |[M:9/8] [E,G,B,]2 [E,G,] [E,G,]2 [E,G,B,] [C,G,C]2 [C,G,C] | %17
 [G,,G,]3 [G,,D,]3 [G,D]3 | [D,A,]2 [D,A,] [D,A,]2 [D,A,] D,2 D, |[M:3/4] G,,6 |] %20
V:3
 x9 | x9 | x9 | x9 |[M:3/4] x6 |[M:3/8] x3 |[M:9/8] x9 | x9 | x9 |[M:3/4] x6 |[M:3/8] x3 | %11
[M:9/8] F2 F F2 [Ac] [GB]2 [FA] | x9 | G2 G G2 d B2 G |[M:3/4] x6 |[M:3/8] x3 | %16
[M:9/8] z2 B, B,2 G AGE | x9 | d2- [Fd-] [Fd]2 [Fc] [CDE]2 [CDF] |[M:3/4] x6 |] %20

